Src/Delivery/studio/bitmaps/src/icons/20/7.svg

<?xml version="1.0" encoding="UTF-8" standalone="no"?>
<svg
   xmlns:dc="http://purl.org/dc/elements/1.1/"
   xmlns:cc="http://creativecommons.org/ns#"
   xmlns:rdf="http://www.w3.org/1999/02/22-rdf-syntax-ns#"
   xmlns:svg="http://www.w3.org/2000/svg"
   xmlns="http://www.w3.org/2000/svg"
   xmlns:xlink="http://www.w3.org/1999/xlink"
   xmlns:sodipodi="http://sodipodi.sourceforge.net/DTD/sodipodi-0.dtd"
   xmlns:inkscape="http://www.inkscape.org/namespaces/inkscape"
   height="100"
   viewBox="0 0 100 100"
   width="100"
   version="1.1"
   id="svg18"
   sodipodi:docname="7.svg"
   inkscape:version="1.0.2-2 (e86c870879, 2021-01-15)">
  <metadata
     id="metadata24">
    <rdf:RDF>
      <cc:Work
         rdf:about="">
        <dc:format>image/svg+xml</dc:format>
        <dc:type
           rdf:resource="http://purl.org/dc/dcmitype/StillImage" />
        <dc:title></dc:title>
      </cc:Work>
    </rdf:RDF>
  </metadata>
  <defs
     id="defs22" />
  <sodipodi:namedview
     pagecolor="#ffffff"
     bordercolor="#666666"
     borderopacity="1"
     objecttolerance="10"
     gridtolerance="10"
     guidetolerance="10"
     inkscape:pageopacity="0"
     inkscape:pageshadow="2"
     inkscape:window-width="2880"
     inkscape:window-height="1721"
     id="namedview20"
     showgrid="false"
     inkscape:zoom="10.08"
     inkscape:cx="50"
     inkscape:cy="50"
     inkscape:window-x="-11"
     inkscape:window-y="-11"
     inkscape:window-maximized="1"
     inkscape:current-layer="svg18" />
  <linearGradient
     id="a">
    <stop
       offset="0"
       stop-color="#c9c9c9"
       id="stop2" />
    <stop
       offset="1"
       stop-color="#e3f9fc"
       id="stop4" />
  </linearGradient>
  <linearGradient
     id="b"
     gradientTransform="matrix(0.84335867,0.40834093,-0.39923406,0.86259641,28.26115,-6.440423)"
     gradientUnits="userSpaceOnUse"
     x1="9.940678"
     x2="24.805084"
     xlink:href="#a"
     y1="77.542374"
     y2="48.728813" />
  <linearGradient
     id="c"
     gradientTransform="matrix(0.84335867,0.40834093,-0.39923406,0.86259641,28.26115,-18.440423)"
     gradientUnits="userSpaceOnUse"
     x1="9.940678"
     x2="24.805084"
     xlink:href="#a"
     y1="77.542374"
     y2="48.728813" />
  <linearGradient
     id="d"
     gradientTransform="matrix(0.84335867,0.40834093,-0.39923406,0.86259641,28.26115,-40.440423)"
     gradientUnits="userSpaceOnUse"
     x1="9.940678"
     x2="24.805084"
     xlink:href="#a"
     y1="77.542374"
     y2="48.728813" />
  <g
     id="g863">
    <path
       d="M 31.728981,40.79351 95.69559,71.76513 68.271022,98.11271 4.3044099,67.14109 Z"
       fill="url(#b)"
       id="path10"
       style="fill:url(#b);fill-rule:evenodd;stroke:#000000;stroke-width:3.77466;stroke-linecap:round;stroke-linejoin:round" />
    <path
       d="M 31.728981,28.79351 95.69559,59.76513 68.271022,86.11271 4.3044099,55.14109 Z"
       fill="url(#c)"
       id="path12"
       style="fill:url(#c);fill-rule:evenodd;stroke:#000000;stroke-width:3.77466;stroke-linecap:round;stroke-linejoin:round" />
    <path
       d="M 31.728981,6.79351 95.69559,37.76513 68.271022,64.11271 4.3044099,33.14109 Z"
       fill="url(#d)"
       id="path14"
       style="fill:url(#d);fill-rule:evenodd;stroke:#000000;stroke-width:3.77466;stroke-linecap:round;stroke-linejoin:round" />
  </g>
</svg>

<?xml version="1.0" encoding="UTF-8"?>
<svg width="100" height="100" version="1.1" viewBox="0 0 100 100" xmlns="http://www.w3.org/2000/svg" xmlns:xlink="http://www.w3.org/1999/xlink">
 <linearGradient id="a">
  <stop stop-color="#c9c9c9" offset="0"/>
  <stop stop-color="#e3f9fc" offset="1"/>
 </linearGradient>
 <linearGradient id="b" x1="9.9407" x2="24.805" y1="77.542" y2="48.729" gradientTransform="matrix(.84336 .40834 -.39923 .8626 28.261 -6.4404)" gradientUnits="userSpaceOnUse" xlink:href="#a"/>
 <linearGradient id="c" x1="9.9407" x2="24.805" y1="77.542" y2="48.729" gradientTransform="matrix(.84336 .40834 -.39923 .8626 28.261 -18.44)" gradientUnits="userSpaceOnUse" xlink:href="#a"/>
 <linearGradient id="d" x1="9.9407" x2="24.805" y1="77.542" y2="48.729" gradientTransform="matrix(.84336 .40834 -.39923 .8626 28.261 -40.44)" gradientUnits="userSpaceOnUse" xlink:href="#a"/>
 <g fill-rule="evenodd" stroke="#000" stroke-linecap="round" stroke-linejoin="round" stroke-width="3.7747">
  <path d="m31.729 40.794 63.967 30.972-27.425 26.348-63.967-30.972z" fill="url(#b)"/>
  <path d="m31.729 28.794 63.967 30.972-27.425 26.348-63.967-30.972z" fill="url(#c)"/>
  <path d="m31.729 6.7935 63.967 30.972-27.425 26.348-63.967-30.972z" fill="url(#d)"/>
 </g>
</svg>
